app/dist/common/images/chubb.svg

<svg height="18" width="18" xmlns="http://www.w3.org/2000/svg"><path d="m0 0h18v18h-18z" fill="#01c1d6"/><path d="m3.5 6a1.5 1.5 0 0 0 -1.5 1.5v3a1.5 1.5 0 0 0 1.5 1.5h4.5v-1h-4.5a.5.5 0 0 1 -.5-.5v-3a.5.5 0 0 1 .5-.5h4.5v-1zm6.5 0v6h1v-2.5h4v2.5h1v-6h-1v2.5h-4v-2.5z" fill="#fff"/></svg>

<!-- by TradingView --><svg width="18" height="18" xmlns="http://www.w3.org/2000/svg"><path fill="#01C1D6" d="M0 0h18v18H0z"/><path d="M3.5 6A1.5 1.5 0 002 7.5v3A1.5 1.5 0 003.5 12H8v-1H3.5a.5.5 0 01-.5-.5v-3a.5.5 0 01.5-.5H8V6H3.5zM10 6v6h1V9.5h4V12h1V6h-1v2.5h-4V6h-1z" fill="#fff"/></svg>
